X: 22955
T: Lass O' Corrie Mill, The
R: strathspey
M: 4/4
K: Fmajor
FGAF E<G F2|AFcF A<c c2|dfcf BfAg|
(3agf (3efd (3cdB (3ABG|FGAF E<G F2|AFcF A<c c2|
dfcf BfAg|(3agf (3efg f<F F2||FGAF A<c c2|efge f<a a2|
bgaf gefg|(3agf (3efd (3cdB (3ABG|FGAF A<c c2|
efge f<a a2|bgaf gefg|(3agf (3efg a<f f2||

